components/Icon/svg/magic-wand.svg

<svg width="24" height="24" viewBox="0 0 24 24" fill="none" xmlns="http://www.w3.org/2000/svg">
<path fill-rule="evenodd" clip-rule="evenodd" d="M14.0672 8.17396C14.0672 8.52104 14.3384 8.80272 14.6725 8.80272C15.0067 8.80272 15.2778 8.52104 15.2778 8.17396C15.2778 6.44108 16.6362 5.03013 18.3045 5.03013C18.6386 5.03013 18.9098 4.74844 18.9098 4.40136C18.9098 4.05428 18.6386 3.7726 18.3045 3.7726C16.6362 3.7726 15.2778 2.36165 15.2778 0.628766C15.2778 0.281687 15.0067 0 14.6725 0C14.3384 0 14.0672 0.281687 14.0672 0.628766C14.0672 2.36165 12.7088 3.7726 11.0406 3.7726C10.7064 3.7726 10.4352 4.05428 10.4352 4.40136C10.4352 4.74844 10.7064 5.03013 11.0406 5.03013C12.7088 5.03013 14.0672 6.44108 14.0672 8.17396ZM14.6725 5.90913C14.3142 5.29168 13.8142 4.77358 13.2209 4.40135C13.8154 4.02912 14.3142 3.50976 14.6725 2.89357C15.0309 3.51102 15.5309 4.02912 16.1241 4.40135C15.5297 4.77358 15.0309 5.29294 14.6725 5.90913ZM2.56598 12.5753C2.23184 12.5753 1.96065 12.2936 1.96065 11.9465C1.96065 11.5995 1.68947 11.3178 1.35533 11.3178C1.02119 11.3178 0.75 11.0361 0.75 10.689C0.75 10.3419 1.02119 10.0602 1.35533 10.0602C1.68947 10.0602 1.96065 9.77855 1.96065 9.43147C1.96065 9.08439 2.23184 8.8027 2.56598 8.8027C2.90012 8.8027 3.17131 9.08439 3.17131 9.43147C3.17131 9.77855 3.44249 10.0602 3.77663 10.0602C4.11077 10.0602 4.38196 10.3419 4.38196 10.689C4.38196 11.0361 4.11077 11.3178 3.77663 11.3178C3.44249 11.3178 3.17131 11.5995 3.17131 11.9465C3.17131 12.2936 2.90012 12.5753 2.56598 12.5753ZM9.90375 6.73158L22.7197 20.0438C23.0611 20.3997 23.25 20.8725 23.25 21.3781C23.25 21.8836 23.0623 22.3564 22.7197 22.7123L22.0103 23.4492C21.6677 23.8038 21.2125 24 20.7258 24C20.2391 24 19.7839 23.8051 19.4413 23.4492L6.6253 10.137C6.2839 9.7811 6.09504 9.30827 6.09504 8.80274C6.09504 8.29721 6.28269 7.82438 6.6253 7.4685L7.33475 6.73158C7.67736 6.37696 8.13257 6.18079 8.61925 6.18079C9.10593 6.18079 9.56114 6.3757 9.90375 6.73158ZM8.19189 7.62065L7.48244 8.35756H7.48366C7.24758 8.60278 7.24758 9.00142 7.48366 9.24664L9.22579 11.0562L10.7912 9.43024L9.04903 7.62065C8.93523 7.5037 8.7839 7.4383 8.62046 7.4383C8.45702 7.4383 8.30569 7.50244 8.19189 7.62065ZM21.8626 21.8232L21.1531 22.5601C21.0393 22.6783 20.888 22.7425 20.7258 22.7425C20.5636 22.7425 20.411 22.6771 20.2984 22.5601L10.0817 11.9478L11.6471 10.3218L21.8638 20.9341C22.0999 21.1793 22.0999 21.578 21.8638 21.8232H21.8626ZM4.38196 5.65889C4.38196 6.00597 4.65315 6.28766 4.98729 6.28766C5.32143 6.28766 5.59262 6.00597 5.59262 5.65889C5.59262 4.61892 6.40739 3.7726 7.4086 3.7726C7.74274 3.7726 8.01392 3.49091 8.01392 3.14383C8.01392 2.79675 7.74274 2.51506 7.4086 2.51506C6.40739 2.51506 5.59262 1.66875 5.59262 0.628766C5.59262 0.281687 5.32143 0 4.98729 0C4.65315 0 4.38196 0.281687 4.38196 0.628766C4.38196 1.66875 3.56719 2.51506 2.56598 2.51506C2.23184 2.51506 1.96065 2.79675 1.96065 3.14383C1.96065 3.49091 2.23184 3.7726 2.56598 3.7726C3.56719 3.7726 4.38196 4.61892 4.38196 5.65889ZM4.98729 3.7751C4.81416 3.53617 4.60956 3.32365 4.37954 3.14382C4.60956 2.96399 4.81416 2.75147 4.98729 2.51254C5.16041 2.75147 5.36501 2.96399 5.59504 3.14382C5.36501 3.32365 5.16041 3.53617 4.98729 3.7751ZM4.98729 18.863C4.65315 18.863 4.38196 18.5813 4.38196 18.2342C4.38196 17.1942 3.56719 16.3479 2.56598 16.3479C2.23184 16.3479 1.96065 16.0662 1.96065 15.7192C1.96065 15.3721 2.23184 15.0904 2.56598 15.0904C3.56719 15.0904 4.38196 14.2441 4.38196 13.2041C4.38196 12.857 4.65315 12.5753 4.98729 12.5753C5.32143 12.5753 5.59262 12.857 5.59262 13.2041C5.59262 14.2441 6.40739 15.0904 7.4086 15.0904C7.74274 15.0904 8.01392 15.3721 8.01392 15.7192C8.01392 16.0662 7.74274 16.3479 7.4086 16.3479C6.40739 16.3479 5.59262 17.1942 5.59262 18.2342C5.59262 18.5813 5.32143 18.863 4.98729 18.863ZM4.37954 15.7191C4.60956 15.899 4.81416 16.1115 4.98729 16.3504C5.16041 16.1115 5.36501 15.899 5.59504 15.7191C5.36501 15.5393 5.16041 15.3268 4.98729 15.0879C4.81416 15.3268 4.60956 15.5393 4.37954 15.7191Z" fill="currentColor"/>
</svg>

<svg xmlns="http://www.w3.org/2000/svg" width="24" height="24" viewBox="0 0 24 24">
  <path fill="currentColor" fill-rule="evenodd" d="M14.067 8.174c0 .347.271.629.605.629a.618.618 0 0 0 .606-.629c0-1.733 1.358-3.144 3.027-3.144a.618.618 0 0 0 .605-.629.618.618 0 0 0-.605-.628c-1.669 0-3.027-1.411-3.027-3.144A.618.618 0 0 0 14.672 0a.618.618 0 0 0-.605.629c0 1.733-1.358 3.144-3.026 3.144a.618.618 0 0 0-.606.628c0 .347.271.63.606.63 1.668 0 3.026 1.41 3.026 3.143Zm.605-2.265a4.366 4.366 0 0 0-1.451-1.508 4.366 4.366 0 0 0 1.451-1.507A4.368 4.368 0 0 0 16.124 4.4a4.368 4.368 0 0 0-1.451 1.508ZM2.566 12.575a.618.618 0 0 1-.605-.628.618.618 0 0 0-.606-.63.618.618 0 0 1-.605-.628c0-.347.271-.629.605-.629a.618.618 0 0 0 .606-.629c0-.347.27-.628.605-.628.334 0 .605.281.605.628 0 .348.271.63.606.63.334 0 .605.28.605.628a.618.618 0 0 1-.605.629.618.618 0 0 0-.606.629.618.618 0 0 1-.605.628Zm7.338-5.843L22.72 20.044c.341.356.53.828.53 1.334 0 .506-.188.978-.53 1.334l-.71.737a1.773 1.773 0 0 1-2.569 0L6.625 10.137a1.914 1.914 0 0 1-.53-1.334c0-.506.188-.979.53-1.335l.71-.736a1.773 1.773 0 0 1 2.569 0Zm-1.712.889-.71.737h.002a.647.647 0 0 0 0 .889l1.742 1.81L10.79 9.43 9.05 7.62a.593.593 0 0 0-.857 0Zm13.67 14.202-.709.737a.59.59 0 0 1-.855 0L10.082 11.948l1.565-1.626 10.217 10.612a.647.647 0 0 1 0 .89h-.001ZM4.383 5.66c0 .347.271.629.605.629a.618.618 0 0 0 .606-.63c0-1.04.814-1.885 1.816-1.885a.618.618 0 0 0 .605-.63.618.618 0 0 0-.605-.628c-1.002 0-1.816-.846-1.816-1.886A.618.618 0 0 0 4.987 0a.618.618 0 0 0-.605.629c0 1.04-.815 1.886-1.816 1.886a.618.618 0 0 0-.605.629c0 .347.27.629.605.629 1.001 0 1.816.846 1.816 1.886Zm.605-1.884a3.138 3.138 0 0 0-.607-.631c.23-.18.434-.393.607-.631.173.238.378.451.608.63-.23.18-.435.393-.608.632Zm0 15.088a.618.618 0 0 1-.605-.629c0-1.04-.815-1.886-1.816-1.886a.618.618 0 0 1-.605-.629c0-.347.27-.629.605-.629 1.001 0 1.816-.846 1.816-1.886 0-.347.271-.629.605-.629.334 0 .606.282.606.63 0 1.04.814 1.885 1.816 1.885.334 0 .605.282.605.63a.618.618 0 0 1-.605.628c-1.002 0-1.816.846-1.816 1.886a.618.618 0 0 1-.606.629Zm-.607-3.144c.23.18.434.393.607.631a3.14 3.14 0 0 1 .608-.63 3.137 3.137 0 0 1-.608-.632 3.137 3.137 0 0 1-.607.631Z"/>
</svg>
